packages/foundations/assets/icons/functional/images/devices/mobile_phone_disabled_12.svg

<svg width="12" height="12" viewBox="0 0 12 12" fill="none" xmlns="http://www.w3.org/2000/svg">
<g clip-path="url(#clip0_231_168)">
<path fill-rule="evenodd" clip-rule="evenodd" d="M1.80005 9.59065C1.80005 9.92815 2.10005 10.2094 2.41877 10.2094C2.56877 10.2094 2.70005 10.1531 2.83133 10.0219L10.0313 2.82187C10.1625 2.70937 10.2 2.55937 10.2 2.40937C10.2 2.09065 9.95633 1.79065 9.61877 1.79065C9.45005 1.79065 9.30005 1.86565 9.18755 1.97815L9.00005 2.14687C8.98133 1.62187 8.56877 1.20937 8.04377 1.20937H3.99377C3.45005 1.20937 3.00005 1.64065 3.00005 2.16565V8.14687L1.98755 9.17815C1.85633 9.30937 1.80005 9.45937 1.80005 9.59065ZM3.75005 10.7906H8.04377C8.58755 10.7906 9.00005 10.3594 9.00005 9.83437V5.54065L7.80005 6.74065V9.60937H4.95005L3.75005 10.7906ZM4.20005 6.94687V2.40937H4.80005V3.00937H7.20005V2.40937H7.80005V3.34687L4.20005 6.94687ZM5.55005 9.00937H6.61877V7.94065L5.55005 9.00937Z" fill="#1A1C1F"/>
</g>
<defs>
<clipPath id="clip0_231_168">
<rect width="12" height="12" fill="white"/>
</clipPath>
</defs>
</svg>

<svg xmlns="http://www.w3.org/2000/svg" width="12" height="12" fill="none"><g clip-path="url(#a)"><path fill="#1A1C1F" fill-rule="evenodd" d="M1.8 9.59c0 .338.3.62.619.62a.56.56 0 0 0 .412-.188l7.2-7.2a.51.51 0 0 0 .169-.413c0-.318-.244-.618-.581-.618a.6.6 0 0 0-.431.187L9 2.147a.956.956 0 0 0-.956-.938h-4.05c-.544 0-.994.432-.994.957v5.98L1.988 9.179a.6.6 0 0 0-.188.413m1.95 1.2h4.294A.95.95 0 0 0 9 9.835V5.541l-1.2 1.2v2.868H4.95zm.45-3.843V2.409h.6v.6h2.4v-.6h.6v.938zm1.35 2.062h1.069V7.941z" clip-rule="evenodd"/></g><defs><clipPath id="a"><path fill="#fff" d="M0 0h12v12H0z"/></clipPath></defs></svg>
